!!!OTL: BEI SEDAN AUF DEN HOEHEN
!!!ARE: Europa, Mitteleuropa, Deutschland, Hessen, Nassau
!!!ARD1: Europa%Mitteleuropa%Deutschland@Nassau:~
!!!ARL1: 49.53/9.88:~
!!!ARD2: Europa%Mitteleuropa%Deutschland@Nassau:~
!!!ARL2: 50.31/7.80:~
!!!ARD3: Europa%Mitteleuropa%Deutschland@Nassau:~
!!!ARL3: 50.76/13.53:~
!!!ARD4: Europa%Mitteleuropa%Deutschland@Nassau:~
!!!ARL4: 48.88/12.86:~
!!!ARD5: Europa%Mitteleuropa%Deutschland@Hessen#
!!!ARL5: 50.50/9.25#
!!!SCT: E1386
!!!YEM: Copyright 1995, estate of Helmut Schaffrath.
**kern
*ICvox
*Ivox
*M3/4
*k[b-e-]
*B-:
{4f
=1
4b-
4f
8f
8f
=2
4g
4g}
{4b-
=3
4.a
8e-
8g
8g
=4
4f
4r}
{4f
=5
4dd
4cc
8b-
8b-
=6
4b-
4g}
{4ee-
=7
8dd
8dd
4cc
4cc
=8
2b-}
==
!!!AGN: Staende -, Soldaten -, Kriegs - Lied
!!!ONB: ESAC (Essen Associative Code) Database: ERK3
!!!AMT: simple triple
!!!AIN: vox
!!!EED: Helmut Schaffrath
!!!EEV: 1.0
*-
